!!!!SEGMENT: pl-cz--iii-50--010_brykner-jerzy--vesperae-credidi.krn
!!!cenid: 17xx:852
!!!COM: Brykner, Jerzy
!!!COM-rismid: pe30025739
!!!CDT: 1705-1760
!!!CNT: Polish
!!!OPR: Vesperae
!!!OTL: Credidi
!!!OMV: 010
!!!PDT:
!!!AGN: Sacred; Vespers
!!!SMS-siglum: PL-CZ
!!!SMS-shelfmark: III-50
!!!SMS-shelfwork: 001-010 M
!!!SMS-variant:
!!!SMS-altvar:
!!!NIFC-rismid: 300033583
!!!URL-scan: http://repozytorium.nifc.pl/skany/pl-cz-nut--iii-50
!!!ONB-nifc: UWAGA: części Vesperae: Dixit Dominus, Confitebor, Beatus vir, Laudate pueri, Laudate Dominum, In exitu, Laetatus sum, Nisi Dominus, Lauda Jerusalem, Credidi, In convertendo, Domine probasti me, Memento Domine David, Confitebor, De profundis, Beati omnes, Magnificat
**kern	**fb	**kern	**kern	**kern	**text	**kern	**text
*part5	*	*part4	*part3	*part2	*part2	*part1	*part1
*group	*	*group2	*group2	*group1	*group1	*group1	*group1
*staff5	*	*staff4	*staff3	*staff2	*staff2	*staff1	*staff1
*Iorgan	*	*Ivioln	*Ivioln	*Iempty	*	*Ivox	*
*I"Organo.	*	*I"Violino Secundo.	*I"Violino Primo.	*I"Baſso.	*	*I"Canto.	*
*I'org	*	*I'vl 2	*I'vl 1	*I'B	*	*I'S	*
*clefF4	*	*clefG2	*clefG2	*clefF4	*	*clefC1	*
*k[f#c#]	*	*k[f#c#]	*k[f#c#]	*k[f#c#]	*	*k[f#c#]	*
*D:	*	*D:	*D:	*D:	*	*D:	*
*M3/4	*	*M3/4	*M3/4	*M3/4	*	*M3/4	*
=1	=1	=1	=1	=1	=1	=1	=1
*	*above	*	*	*	*	*	*
!LO:TX:a:i:t=Tutti.	!	!LO:TX:b:i:t=Credidi	!	!	!	!	!
!LO:TX:b:i:t=Credidi.	!	!	!LO:TX:b:i:t=Credidi	!	!	!	!
!	!	!	!	!	!	!LO:TX:a:t=P:problem:w źródle krzyżyki przykluczowe - ff# c#	!
8D\L	.	16aa\LL	16ddd\LL	8D\	CRe-	8ff#\	Cre-
.	.	16ff#\	16aa\	.	.	.	.
8D\	.	16dd\	16ff#\	16D\	-di-	16ff#\	-di-
.	.	16ff#\JJ	16aa\JJ	16D\	-di	16ff#\	-di
8F#\	.	8aa\L	8ddd\L	8F#\	p(ro)-	8dd\	p(ro)-
8F#\	.	8dd\	8ff#\	8F#\	-pter	8ff#\	-pter
8A\	.	8cc#\	8ee\	8A\	q(uo)d	8ee\	q(uo)d
8A\J	.	8ee\J	8ccc#\J	8A\	lo-	8ee\	lo-
=2	=2	=2	=2	=2	=2	=2	=2
!LO:TX:a:t=P:problem:mixed beam	!	!	!	!	!	!	!
8d\L	.	16ff#\LL	8ddd\L	4.d\	-cu-	4.ff#\	-cu-
.	.	16gg\	.	.	.	.	.
8D/	.	16ff#\	16ff#\L	.	.	.	.
.	.	16ee\JJ	16ee\JJ	.	.	.	.
8D/	.	8dd\L	8dd\L	.	.	.	.
8d\	.	8ff#\	8ddd\	8d\	-tus	8ff#\	-tus
8A\	.	8ee\	8ccc#\	8A,\	su(m)	8ee\	ſum,
8A\J	.	8ee\J	8ccc#\J	16A\	e-	16cc#\	e-
.	.	.	.	16A\	-go	16cc#\	-go
=3	=3	=3	=3	=3	=3	=3	=3
8B\L	.	8dd\L	8bb\L	8B\	au-	8dd\	au-
8G\	.	16b\L	8dd\J	16G,\	-te(m)	16dd\	-te(m)
.	.	16dd\JJ	.	16B\	hu-	16dd\	hu-
8E\	.	8ee\L	8gg\L	8E\	-mi-	8ee\	-mi-
8G\J	.	16b\L	16ee\L	8G,\	-li-	16b\LL	-li-
.	.	16ee\JJ	16gg\JJ	.	.	16ee\JJ	.
!	!	!	!LO:TX:a:t=P:problem:mixed beam	!	!	!	!
4C#/	6 5	8cc#\L	8a/L	[<8C#/	-a-	4a\	-a-
.	.	16b\L	8gg\J	8C#/]	.	.	.
.	.	16a\JJ	.	.	.	.	.
=4	=4	=4	=4	=4	=4	=4	=4
8D/L	.	(>32dd\LLL	(>32ff#\LLL	8D/	-tus	8a\	-t(us)
.	.	32cc#\JJ	32ee\JJ	.	.	.	.
.	.	8.b\J)	8.dd\J)	.	.	.	.
8GG/J	.	.	.	8GG/	ſum	8b\,	ſum
2AA/	6 4	4dd\	4ff#\	2AA/	ni-	(<4f#/	ni-
.	5 3	4cc#\	4ee\	.	.	4e/)	.
=5	=5	=5	=5	=5	=5	=5	=5
8D\L	.	16dd\LL	16dd\LL	8D\	-mis.	8d/	-mis,
.	.	16dd\	16ff#\	.	.	.	.
16d\L	.	16dd\	16ff#\	16d\	E-	16ff#\	E-
16c#\JJ	.	16dd\JJ	16ff#\JJ	16c#\	-go	16ee\	-go
8B\L	.	16dd\LL	16ff#\LL	8B\	di-	8dd\	di-
.	.	16dd\	16ff#\	.	.	.	.
8B\	.	16dd\	16ff#\	8B\	-xi	8dd\	-xi
.	.	16dd\JJ	16ff#\JJ	.	.	.	.
!	!	!	!	!LO:LB:g=original	!	!LO:LB:g=original	!
8A\	4 2	16dd#X\LL	16ff#\LL	16B\	in	16dd#X\	in
.	.	16dd#\	16ff#\	16B\	ex-	16dd#\	ex-
8A\J	.	16dd#\	16ff#\	16A\	-ceſ-	16dd#\	-ceſ-
.	.	16dd#\JJ	16ff#\JJ	16A\	-su	16dd#\	-su
!	!	!LO:LB:g=original	!LO:LB:g=original	!	!	!	!
=6	=6	=6	=6	=6	=6	=6	=6
8G\L	X 6	8ee\L	8gg\L	8G\	me-	8ee\	me-
8G\J	.	8ee\	8gg\	8G\	-o	8ee\	-o
2G#X\	X 6	8ee#X\	8bb\	4.G#X\	om-	4.ee#X\	om-
.	.	8ee#\	8bb\	.	.	.	.
.	.	8ee#\	8bb\	.	.	.	.
.	.	8ee#\J	8bb\J	8G#\	-nis	8ee#\	-nis
=7	=7	=7	=7	=7	=7	=7	=7
8F#\L	X #_	16ff#\LL	16aa#X\LL	8F#\	ho-	8ff#\	ho-
.	.	16cc#\	16aa#\	.	.	.	.
8F#\	.	16cc#\	16aa#\	8F#,\	-mo	8f#/	-mo
.	.	16cc#\JJ	16aa#\JJ	.	.	.	.
*	*	*	*	*	*ij	*	*ij
8E\	.	16cc#\LL	16bb\LL	8E\	om-	8a#X\	om-
.	.	16cc#\	16bb\	.	.	.	.
8E\	.	16cc#\	16bb\	8E\	-nis	8a#\	-nis
.	.	16cc#\JJ	16bb\JJ	.	.	.	.
8D\	X 6	16dd\LL	16bb\LL	8D\	ho-	8b\	ho-
.	.	16dd\	16bb\	.	.	.	.
8D\J	.	16ff#\	16bb\	8D\	-mo	8b\	-mo
*	*	*	*	*	*Xij	*	*Xij
.	.	16ff#\JJ	16bb\JJ	.	.	.	.
!LO:LB:g=original	!	!	!	!	!	!	!
=8	=8	=8	=8	=8	=8	=8	=8
*2\right	*	*	*	*	*	*	*
4E#X\	6 5	8gg#X\L	8bb\L	(>4E#X\	men-	8b\L	men-
!	!	!LO:SIC:s=8cc#	!	!	!	!	!
.	.	8b\J	8ccc#\J	.	.	8cc#\J	.
*	*	*	*	*2\right	*	*	*
*	*reverse	*	*	*	*	*	*
2F#\	X 4#	4dd\	4bb\	2F#\)	.	4b\	.
*	*Xreverse	*	*	*	*	*	*
.	.	4cc#\	4aa#X\	.	.	4a#X\	.
=9	=9	=9	=9	=9	=9	=9	=9
!LO:TX:a:i:t=ſolo.	!	!	!	!	!	!	!
4BB/	.	4b/	4bb\	4BB/	-dax	4b,\	-dax,
2GG/	.	4r	4r	4r	.	4.b\	quid
.	.	4r	4r	4r	.	.	.
.	.	.	.	.	.	8ccn\	re-
=10	=10	=10	=10	=10	=10	=10	=10
!	!	!LO:N:vis=00	!LO:N:vis=00	!	!	!	!
4BB/	X 6	0.r	0.r	8B\	Ca-	8dd\	-tri-
.	.	.	.	16B\	-li-	16gg\	-bu-
.	.	.	.	16B\	-cem	16gg,\	-am
4Cn/	.	.	.	8cn\	ſa-	8.ee\	D(o-
.	.	.	.	8c\	-lu-	.	.
.	.	.	.	.	.	16ee\	-mi)-
8G\L	X n	.	.	8B\	-ta-	8dd,\	-no
!	!	!	!	!LO:SIC:custos cn:v	!	!	!
!	!	!	!	!LO:LB:g=original	!	!	!
8cn\J	.	.	.	16c\	-ris	8ee\	pro
.	.	.	.	16B\	ac-	.	.
!	!	!	!	!	!	!LO:LB:g=original	!
=11	=11	=11	=11	=11	=11	=11	=11
4A\	X n	.	.	8.A\	-ci-	8cc#\	om-
.	.	.	.	.	.	16b\	-ni-
.	.	.	.	16A\	-pi-	16cc#\	-b(us)
4Cn/	X 6	.	.	16A,\	-am,	8a\	quae
.	.	.	.	16A\	et	.	.
.	.	.	.	16G\	No-	16e/LL	re-
.	.	.	.	16F#\	-me(n)	16f#/JJ	.
4C#X/	6 5	.	.	8E\	Do-	8g\	-tri-
.	.	.	.	16E\	-mi-	16a\	-bu-
.	.	.	.	16E\	-ni	16g\	-it
=12	=12	=12	=12	=12	=12	=12	=12
4.D\	.	.	.	8D\	in-	8f#/	mi-
.	.	.	.	8E\	-vo-	8d/	-hi,
.	.	.	.	8F#\	-ca-	4.dd\	Vo-
8E\	.	.	.	8G,\	-bo	.	.
4F#\	.	.	.	8A\	pre-	.	.
.	.	.	.	8D\	-ti-	8ccn\	-ta
=13	=13	=13	=13	=13	=13	=13	=13
4.G\	X 5	.	.	8G\	-o-	8b\	me-
.	X 6	.	.	8A\	-sa	16ccn\LL	-a
.	.	.	.	.	.	16dd,\JJ	.
.	.	.	.	8B\	in	8ee\	Do-
8A\	.	.	.	8A\	con-	16dd\	-mi-
.	.	.	.	.	.	16cc\	-no
4B\	X 6	.	.	8G\	-spe-	8dd\	red-
.	.	.	.	8B\	-ctu	8g\	-da(m)
=14	=14	=14	=14	=14	=14	=14	=14
!	!	!LO:N:vis=0	!LO:N:vis=0	!	!	!	!
8A\L	X n	1.r	1.r	8A\	D(o-	4.ccn\	co-
8G\	.	.	.	16G\	-mi)-	.	.
.	.	.	.	16G,\	-ni	.	.
8F#\	.	.	.	8F#\,	mors	.	.
8D\	.	.	.	8D\	ſan-	16b\LL	-ram
.	.	.	.	.	.	16a\JJ	.
!	!	!	!	!LO:SIC:custos G:v	!	!	!
!	!	!	!	!LO:LB:g=original	!	!	!
8G\	.	.	.	8G\	-cto-	8b\	om-
!LO:SIC:s=8D	!	!	!	!	!	!	!
8C#\J	.	.	.	8D\	-rum	16a\LL	-ni
.	.	.	.	.	.	16g\JJ	.
=15	=15	=15	=15	=15	=15	=15	=15
4Cn/	X 6	.	.	(>4E\	e-	8a\	po-
.	.	.	.	.	.	16f#\	-pu-
.	.	.	.	.	.	16g\	-lo
4D/	X 4	.	.	2D\)	.	(<4g/	e-
4DD/	X 3	.	.	.	.	4f#/)	.
!	!	!	!	!	!	!LO:LB:g=original	!
=16	=16	=16	=16	=16	=16	=16	=16
4GG/	.	4r	4r	4GG/	-jus	4g/	-jus,
!LO:LB:g=original	!	!	!	!	!	!	!
8r	.	8r	8r	8r	.	8r	.
!LO:TX:a:t=T.	!	!	!	!	!	!	!
8G\	.	8dd\L	8bb\	8G\	O!	8dd\	O!
4F#\	X 6	8dd#X\	16aa\LL	8.F#\	Do-	8.dd#X\	Do-
.	.	.	16gg\	.	.	.	.
.	.	8dd#\J	16aa\	.	.	.	.
.	.	.	16bb\JJ	16F#\	-mi-	16dd#\	-mi-
=17	=17	=17	=17	=17	=17	=17	=17
4E\	.	16ee\LL	16gg\LL	8E,\	-ne	8ee\	-ne
.	.	16b\J	16ff#\	.	.	.	.
.	.	8ee\J	16gg\	16E\	qui-	16ee\	qui-
.	.	.	16bb\JJ	16E\	-a	16ee\	-a
8F#\L	X 6	8dd\L	8aa\L	8F#\	e-	8dd\	e-
8G\	.	16cc#\L	16gg\L	8G\	-go	16cc#\LL	-go
.	.	16b\JJ	16ff#\JJ	.	.	16b\JJ	.
8A\	X #	8cc#\L	8ee\L	8A\	ſer-	8cc#\	ſer-
8F#\J	X 6	8dd\J	8aa\J	8F#\	-v(us)	8dd\	-vus
!	!	!LO:LB:g=original	!LO:LB:g=original	!	!	!	!
=18	=18	=18	=18	=18	=18	=18	=18
4G\	.	16b\LL	8dd\L	8G\	tu-	8b\	tu-
.	.	16a\	.	.	.	.	.
.	.	16b\	8bb\J	16G\	-us,	16b\	-us,
.	.	16cc#\JJ	.	16G\	et	16b\	et
4F#\	X 6	16dd\LL	8aa\L	8.F#\	fi-	8.dd\	fi-
.	.	16a\J	.	.	.	.	.
.	.	8dd\J	8dd\	.	.	.	.
.	.	.	.	16F#\	-li-	16dd\	-li-
8E\L	X 6	8.cc#\L	8gg\	8E\	-us	8cc#X\	-us
8D\J	.	.	8ff#\J	8D\	an-	8dd\	an-
.	.	16dd\Jk	.	.	.	.	.
=19	=19	=19	=19	=19	=19	=19	=19
8C#/L	X 6	8ee\L	8ee\L	8C#/	-cil-	8ee\	-cil-
8D/J	.	8dd\J	8ff#\J	8D/	-lae	8dd\	-lae
*	*	*	*2\right	*	*	*	*
2E\	X 7	4dd\	2gg\	2E\	tu-	(>4dd\	tu-
.	X 6	4cc#\	.	.	.	4cc#\)	.
=20	=20	=20	=20	=20	=20	=20	=20
!LO:TX:a:i:t=ſ&colon;	!	!	!	!	!	!	!
2D\	.	4dd\	4ff#\	2D\	-ae	8dd\,	-ae
.	.	.	.	.	.	16dd\	dis-
.	.	.	.	.	.	16cc#\	-ru-
.	.	4r	4r	.	.	8dd\	-pis-
.	.	.	.	.	.	8a\	-ti
4F#\	X 6	4r	4r	4r	.	8dd\	vin-
.	.	.	.	.	.	16ccn\	-cu-
.	.	.	.	.	.	16dd\	-la
!	!	!	!	!LO:PB:g=original	!	!LO:PB:g=original	!
=21	=21	=21	=21	=21	=21	=21	=21
!	!	!LO:N:vis=00	!LO:N:vis=00	!	!	!	!
4.G\	X 3	0.r	0.r	8r	.	8b\	me-
.	4 2	.	.	16B\	Vo-	16g\	-a
.	.	.	.	16B\	-ta	16b\	ti-
.	.	.	.	8E\	me-	8ccn\	-bi
8F#\	X 6	.	.	8F#\	-a	8dd\	sa-
8C#/L	6 5	.	.	8G\	Do-	8ee\	-cri-
8D/J	.	.	.	16F#\	-mi-	8dd\	-fi-
.	.	.	.	16F#\	-no	.	.
=22	=22	=22	=22	=22	=22	=22	=22
4AA/	6 4	.	.	16F#\	red-	8dd\	-ca-
.	5 3	.	.	16F#\	-da(m)	.	.
.	.	.	.	16E\	in	8cc#\	-bo
.	9 4	.	.	16E\	con-	.	.
4BB/	8 3	.	.	8E\	-spec-	8cc#\	hos-
.	.	.	.	8D\	-tu	16b\	-ti-
.	5 4	.	.	.	.	16b\	-am
4F#\	X 3	.	.	8C#/	om-	8b\	lau-
.	.	.	.	8F#\	-nis	16a\	-dis,
.	.	.	.	.	.	16a\	et
=23	=23	=23	=23	=23	=23	=23	=23
.	X 9	.	.	.	.	.	.
4G\	X 8	.	.	8B\	po-	8a\	no-
.	.	.	.	16B\	-pu-	8g\	-men
.	.	.	.	16B\	-li	.	.
4.D/	X 4	.	.	8A\	e-	8g\	Do-
.	X 3	.	.	16A\	-jus,	16a\	-mi-
.	.	.	.	16A\	in	16g\	-ni
.	.	.	.	8A\	a-	8f#/	in-
8C#/	X 6	.	.	16A\	-tri-	8a\	-vo-
.	.	.	.	16A\	-js	.	.
=24	=24	=24	=24	=24	=24	=24	=24
!LO:TX:a:t=P:problem:mixed beam	!	!	!	!	!	!	!
8BB/L	.	.	.	8B\	do-	4.dd\	-ca-
8B\	.	.	.	8B\	-mus	.	.
!	!	!	!	!LO:SIC:custos B:v	!	!	!
!	!	!	!	!LO:LB:g=original	!	!	!
8G#X\	6 5	.	.	16B\	Do-	.	.
.	.	.	.	16B\	-mi-	.	.
8E\	.	.	.	16A\	-ni	16cc#\LL	.
.	.	.	.	16G#X\	in	16b\JJ	.
8A\	.	.	.	8A\	me-	8cc#\L	.
8D\J	.	.	.	16d\	-di-	16ff#\L	.
.	.	.	.	16B\	-o	16dd\JJ	.
!LO:LB:g=original	!	!	!	!	!	!	!
=25	=25	=25	=25	=25	=25	=25	=25
8E\L	X #	2.r	2.r	8G#X\	tu-	8b\L	.
8A\J	.	.	.	16A\	-i	16a\L	.
.	.	.	.	16A\	Je-	16b\JJ	.
*	*reverse	*	*	*	*	*	*
!	!	!	!	!	!	!LO:LB:g=original	!
2E\	X 4#	.	.	(>4A\	-ru-	(>4e/	.
*	*Xreverse	*	*	*	*	*	*
.	.	.	.	8.G#X\)	.	4b\)	.
.	.	.	.	16A\	-sa-	.	.
=26	=26	=26	=26	=26	=26	=26	=26
4AA/	.	4r	4r	4A\	-lem.	4a\	-bo.
!LO:TX:a:t=T.	!	!	!	!	!	!	!
8A\L	.	8cc#\L	8ee\L	4.A\	Glo-	4.cc#\	Glo-
8A\	.	8cc#\	8ee\	.	.	.	.
8A\	.	8cc#\	8ee\	.	.	.	.
8G\J	.	8cc#\J	8ee\J	16Gn\	-ri-	16cc#\	-ri-
.	.	.	.	16G\	-a	16cc#\	-a
=27	=27	=27	=27	=27	=27	=27	=27
8F#\L	X 6	8dd\L	8ff#\L	8F#\	Pa-	8dd\	Pa-
8D\J	.	8ff#\	8aa\	8D\	-tri,	8dd\	-tri,
4.d\	.	8ff#\	8aa\	4.d\	Glo-	4.ff#\	Glo-
.	.	8ff#\	8aa\	.	.	.	.
.	.	8ff#\	8aa\	.	.	.	.
8cn\	.	8ff#\J	8aa\J	16cn\	-ri-	16ff#\	-ri-
.	.	.	.	16c\	-a	16ff#\	-a
!	!	!LO:LB:g=original	!	!	!	!	!
=28	=28	=28	=28	=28	=28	=28	=28
!	!	!LO:TX:a:t=P:problem:mixed beam	!	!	!	!	!
8B\L	X 6	8gg\L	8gg\L	8B\	Fi-	8gg\	Fi-
8G\	.	8g/	8gg\	16G\	-li-	16g\	-li-
.	.	.	.	16G\	-o,	16g\	-o,
!	!	!	!	!LO:LB:g=original	!	!	!
8E\	.	8ee\	8gg\	4.E\	Glo-	8gg\L	Glo-
8E\	.	8dd\	8gg\	.	.	8ff#\	.
8E\	.	8cc#\	8gg\	.	.	8ee\J	.
8E\J	.	8b\J	8gg\J	16E\	-ri-	16dd\	-ri-
.	.	.	.	16E\	-a,	16dd\	-a,
=29	=29	=29	=29	=29	=29	=29	=29
8F#\L	X #	8a#X/L	8ff#\L	8F#\	et	8cc#\	et
8F#\	.	8f#/	8aa#X\	8F#\	Spi-	16dd\LL	Spi-
.	.	.	.	.	.	16cc#\JJ	.
8G\	.	8b/	8bb\	8G\	-ri-	8b\	-ri-
8D\	X 6	8b/	8b\J	16D\	-tu-	16b\	-tu-
.	.	.	.	16D\	-i	16b\	-i
8E\	.	8b/	4cc#t\	8E\L	San-	8b\L	San-
8F#\J	X #	8a#X/J	.	8F#\J	.	8a#X\J	.
!	!	!	!LO:LB:g=original	!	!	!LO:LB:g=original	!
=30	=30	=30	=30	=30	=30	=30	=30
!LO:TX:a:t=P:problem:mixed beam	!	!	!	!	!	!	!
8BB/L	X n	8b\L	8b\L	8BB/	-cto,	8b\	-cto.
16B\L	.	8dd#X\	8ff#\	16B\	si-	16dd#X\	Si-
16c#\JJ	.	.	.	16c#\	-cut	16dd#\	-cut
8B\L	.	8dd#\	8ff#\	8B\	e-	8dd#\	e-
8A\	.	8dd#\J	8ff#\	8A\	-rat	8dd#\	-rat
8G\	.	8b/L	8gg\	8G\	in	8ee\	in
8F#\J	.	8a/J	8aa\J	8F#\	prin-	8ff#\	prin-
=31	=31	=31	=31	=31	=31	=31	=31
8E\L	.	8g/L	8bb\L	8E\	-ci-	8.gg\	-ci-
8F#\	.	8a/	8aa\	8F#\	-pi-	.	.
.	.	.	.	.	.	16ff#\	-pi-
8G\	.	8b/	8gg\	8G\	-o,	8ee,\	-o,
8E\	.	8g/	8bb\J	8E\	et	8ee\	et
8F#\	.	8a/	8aa\L	8F#\	nu(n)c,	8dd\	nunc,
8G\J	.	8b/J	16gg\L	8G\	et	8ee\	et
.	.	.	16ff#\JJ	.	.	.	.
!LO:LB:g=original	!	!	!	!	!	!	!
=32	=32	=32	=32	=32	=32	=32	=32
!LO:SIC:custos A:v	!	!	!	!	!	!	!
8A\L	.	8cc#\L	8ee\L	8.A\	ſem-	8cc#\	ſem-
8B\	.	8dd\	8ee\	.	.	8cc#,\	-per,
.	.	.	.	16B\	-per	.	.
!	!	!	!	!LO:LB:g=original	!	!	!
8A\	.	8cc#\	8ee\	8A\	et	8cc#\	et
8G\	.	8b\	8ee\	8G\	in	8cc#\	in
8F#\	.	8a\	8ff#\	8F#\	ſae-	8dd\	ſae-
8E\J	.	8g\J	8gg\J	16E\	-cu-	16ee\	-cu-
.	.	.	.	16E\	-la	16ee\	-la
=33	=33	=33	=33	=33	=33	=33	=33
8D\L	.	8f#/L	8aa\L	8D\	ſae-	8.ff#\	ſae-
8E\	.	8g/	8gg\	8E\	-cu-	.	.
.	.	.	.	.	.	16ee\	-cu-
8F#\	.	8a/	8ff#\	8F#\	-lo-	8dd\	-lo-
8D\	.	8f#/	8aa\J	8D\	-rum	8dd\	-rum
!	!	!	!	!	!	!LO:LB:g=original	!
8E\	.	8g/	8gg\L	8E\	a-	8cc#\	a-
8F#\J	.	8a/J	16ff#\L	8F#\	-men	8dd\	-men
.	.	.	16ee\JJ	.	.	.	.
=34	=34	=34	=34	=34	=34	=34	=34
8G\L	.	8b\L	8dd\L	8G\L	a-	8b\L	a-
8F#\	.	8a\	8dd\	8F#\	.	8a\	.
8G\	.	8b\	8gg\	8G\	.	8b\	.
8A\	.	8cc#\	8gg\	8A\	.	8cc#\	.
8B\	.	8dd\	8gg\	8B\	.	8dd\	.
8c#\J	.	8ee\J	8gg\J	8c#\J	.	8ee\J	.
!	!	!LO:TX:a:t=P:problem:mixed beam	!	!	!	!	!
=35	=35	=35	=35	=35	=35	=35	=35
8d\L	.	8ff#\L	8ff#\L	8d\	.	8ff#\	.
8G\J	.	16ee\L	16bb\L	8G,\	-men	16ee\LL	-men
.	.	16dd\JJ	16gg\JJ	.	.	16dd\JJ	.
4A\	.	4dd\	4ff#\	2A\	a-	(>4dd\	a-
4AA/	.	4cc#\	4ee\	.	.	4cc#X\)	.
=36	=36	=36	=36	=36	=36	=36	=36
*	*	*2\right	*	*	*	*2\right	*
2.D/	.	2.dd\	2.dd\	2.D\	-men.	2.dd\	-men.
==;;	==;;	==;;	==	==;;	==	==;	==
*-	*-	*-	*-	*-	*-	*-	*-
!!!system-decoration: [g1][g2]s5
!!!RDF**kern: > = above
!!!RDF**kern: < = below
!!!EED: Antoni Szymański
!!!EST: 2020-12-30
!!!AIN: 1 empty 1 organ 2 violn 1 vox
!!!ENC: Andrzej Borzym
!!!END: 2020-07-07
